X:690
T:Tonada (CT 297)
R:Tonada
C:Tradicional
S:Msica Tradicional Asturiana, (C) Tello & Tito. Asturies, 2001.
S:http://pagina.de/MusTradAst <telloytito@asturies.org>
N:Cancin de empleo indeterminado, transcrita en Uviu.
N:Se canta generalmente con acompaamiento de gaita.
A:Asturies
O:Uviu
Z:Cancioneru de Torner 297
M:3/4
L:1/8
Q:1/8=138
K:G
|: Gd dd e>e|(de/4d/4c/4B/4 cB/4c/4B/4A/4) G2|
Gd dB d>B|(de/4d/4c/4B/4 B3/2(3c/4B/4A/4 G2-)|[1 G4 z2 :|[2 G2 zG/G/ cB|
|: (A3/2(3B/4A/4G/4) FG/A/ BA|[1 G2-GG/G/ cB :|[2 G4 z2||
W:Yo si voi a la foguera,
W:nun voi a la romera;
W:que mio madre nun me dexa
W:andar de noche y de da.
W:
W:Qu gusto dara,
W:que gusto dar
W:dir a Covadonga
W:y dormir all.
W:
